!!!!SEGMENT: pl-kk--kk-i-1--013-003_borek-krzysztof--missa-te-deum-laudamus-patrem.krn
!!!cenid: 15xx:698
!!!COM: Borek, Krzysztof
!!!COM-rismID: pe30020454
!!!CDT: 1520-1573
!!!CNT: Polish
!!!OPR: [Missa] Te Deum laudamus
!!!OTL: Patrem
!!!OMV: 003
!!!PDT:
!!!AGN: Sacred; Mass
!!!YEC: Copyright 2022 Narodowy Instytut Fryderyka Chopina (https://polishscores.org)
!!!YEM: License CC-BY-4.0 (https://creativecommons.org/licenses/by/4.0)
!!!SMS-siglum: PL-Kk
!!!SMS-shelfmark: Kk.I.1
!!!SMS-shelfwork: 013-003 M
!!!SMS-variant:
!!!SMS-altvar:
!!!NIFC-rismSourceID: 300257954
!!!NIFC-rismChildID: 300257967
!!!NIFC-islandoraID: pl-kk:1
!!!URL-pdf-islandora: https://repozytorium.nifc.pl/islandora/object/pl-kk%3A1/datastream/PDF/view
!!!URL-scan: https://polish.musicsources.pl/pl/lokalizacje/galeria/rekopisy/5736 @EN{Scan on Polish Music Sources Website} @PL{Skany w portalu Dziedzictwo Muzyki Polskiej w otwartym dostępie}
!!!IIIF: https://repozytorium.nifc.pl/islandora/object/pl-kk%3A1/datastream/IIIF/view
!!!ONB-nifc: UWAGA: Cantus (s. 75r-81v, skan 0077-0084), Altus (s. 73r-78v, skan 0265-0271), Tenor (s. 71r-76r, skan 0460-0465), Bassus (s. 70v-76r, skan 0632-0637). Części Mszy: 1. Kyrie, 2. Et in terra, 3. Patrem, 4. Sanctus, 5. Agnus Dei
!!!AIN: 1 alto 1 bass 2 tenor
!!!key:
**kern	**text	**kern	**text	**kern	**text	**kern	**text
*part4	*	*part3	*	*part2	*	*part1	*
*staff4	*	*staff3	*	*staff2	*	*staff1	*
*I"BASSVS	*	*I"TENOR	*	*I"ALTVS	*	*I"CANTVS	*
*I'B	*	*I'T	*	*I'A	*	*I'S	*
*ICvox	*	*ICvox	*	*ICvox	*	*ICvox	*
*Ibass	*	*Itenor	*	*Itenor	*	*Ialto	*
*mI"Basso	*	*mI"Tenore II	*	*mI"Tenore I	*	*mI"Alto	*
*mI'B	*	*mI'T 2	*	*mI'T 1	*	*mI'A	*
!LO:MO:mod=*null:null	!	!LO:MO:mod=*null:null	!	!LO:MO:mod=*null:null	!	!LO:MO:mod=*null:null	!
*stria6	*	*stria6	*	*stria6	*	*stria6	*
*clefF4	*	*clefC4	*	*clefC3	*	*clefC3	*
*	*	*mclefGv2	*	*mclefGv2	*	*mclefG2	*
*k[]	*	*k[]	*	*k[]	*	*k[]	*
*a:	*	*a:	*	*a:	*	*a:	*
*M2/1	*	*M2/1	*	*M2/1	*	*M2/1	*
*met(C|)	*	*met(C|)	*	*met(C|)	*	*met(C|)	*
*mmet(c|)	*	*mmet(c|)	*	*mmet(c|)	*	*mmet(c|)	*
=1-	=1-	=1-	=1-	=1-	=1-	=1-	=1-
*xywh-#634:1439,2396,4093,768	*xywh-#462:6098,1553,4108,739	*	*	*xywh-#267:5995,3159,4180,1038	*	*xywh-#80:1576,3185,4088,772	*
!LO:TX:t=P:problem=sześciolinia	!	!LO:TX:t=P:problem=sześciolinia	!	!LO:TX:t=P:problem=sześciolinia	!	!LO:TX:t=P:problem=sześciolinia	!LO:MO:mod=Pa-
00r	.	00r	.	1r	.	1B/	PA-
!	!	!	!	!	!	!	!LO:MO:mod=-trem
.	.	.	.	1B/	Pa-	1d\	-tre(m)
=2-	=2-	=2-	=2-	=2-	=2-	=2-	=2-
!	!	!	!	!	!LO:MO:mod=-trem	!	!
.	.	.	.	2c/	-tre(m)	1e\	om-
.	.	.	.	1B/	om-	.	.
.	.	.	.	.	.	2e\	-ni-
.	.	.	.	2B/	-ni-	1e\	-po-
=3-	=3-	=3-	=3-	=3-	=3-	=3-	=3-
1AA/	Pa-	00r	.	2.c/	-po-	.	.
.	.	.	.	.	.	2f\	-ten-
.	.	.	.	4B/	.	.	.
1C/	-trem	.	.	4c\	.	2e\	-tem
.	.	.	.	4d\	.	.	.
.	.	.	.	2e\	-ten-	2g\	.
=4-	=4-	=4-	=4-	=4-	=4-	=4-	=4-
!	!	!	!	!	!LO:MO:mod=-tem	!	!
1D\	om-	.	.	2A/	-te(m)	2f\	.
*	*	*	*	*	*ij	*	*
.	.	.	.	2d\	om-	2f\	.
2D/	-ni-	.	.	2d\	-ni-	2f\	.
2.D/	-po-	.	.	1f\	-po-	2d\	.
=5-	=5-	=5-	=5-	=5-	=5-	=5-	=5-
.	.	1r	.	.	.	2r	.
4E\	.	.	.	.	.	.	.
!	!LO:MO:mod=-ten-	!	!	!	!	!	!
2F\	-te(n)-	.	.	2d\	-ten-	1d\	fac-
*	*	*lig	*	*	*	*	*
!	!	!	!LO:MO:mod=Pa-	!	!LO:MO:mod=-tem	!	!
1E\	-tem	1G/	PA-	1e\	-te(m)	.	.
*	*	*	*	*	*Xij	*	*
*	*	*	*	*	*	*custos:d	*
.	.	.	.	.	.	2c/	-to-
!	!	!	!	!	!	!LO:PB:g=original	!
=6-	=6-	=6-	=6-	=6-	=6-	=6-	=6-
*	*	*	*	*	*	*xywh-#80:5972,734,4131,796	*
2D/	.	1A\	.	1r	.	2d\	-rem
!	!	!	!	!	!	!	!LO:MO:mod=cae-
2D/	fac-	.	.	.	.	2f\	c(ae)-
*	*	*Xlig	*	*	*	*	*
!	!	!	!LO:MO:mod=-trem	!	!	!	!
2C/	-to-	1A\	-tre(m)	2r	.	2e\	-li
!	!LO:MO:mod=-rem	!	!	!	!	!	!LO:MO:mod=et
2D/	-re(m)	.	.	2d\	fac-	1f\	e(t)
=7-	=7-	=7-	=7-	=7-	=7-	=7-	=7-
!	!LO:MO:mod=cae-	!	!LO:MO:mod=im-	!	!	!	!
1F\	c(ae)-	1A\	i(m)-	2c/	-to-	.	.
*	*	*	*	*custos:e	*	*	*
!	!	!	!	!	!	!	!LO:MO:mod=ter-
.	.	.	.	2d\	-rem	2f\	t(er)-
*	*	*	*	*xywh-#268:1496,730,4052,760	*	*	*
!	!	!	!	!LO:PB:g=original	!LO:MO:mod=cae-	!	!LO:MO:mod=-rae
2.E\	-li	1B\	-men-	1.e\	c(ae)-	1g\	-r(ae)
*custos:C	*	*	*	*	*	*	*
4D/	.	.	.	.	.	.	.
!LO:LB:g=original	!	!	!	!	!	!	!
=8-	=8-	=8-	=8-	=8-	=8-	=8-	=8-
*xywh-#634:1371,3158,4216,843	*	*	*	*	*	*	*
!	!	!	!LO:MO:mod=-sae	!	!	!	!
2C/	et	1A\	-ſ(ae)	.	.	2r	.
!	!LO:MO:mod=ter-	!	!	!	!	!	!
2D/	t(er)-	.	.	4d\	.	2a\	vi-
.	.	.	.	4c\	.	.	.
!	!LO:MO:mod=-rae	!	!	!	!	!	!
1E\	-r(ae)	1G/	ma-	2B/	-li	2e\	-ſi-
!	!	!	!	!	!LO:MO:mod=et	!	!
.	.	.	.	2c/	e(t)	1g\	-bi-
=9-	=9-	=9-	=9-	=9-	=9-	=9-	=9-
*	*	*lig	*	*	*	*	*
!	!	!	!	!	!LO:MO:mod=ter-	!	!
2r	.	1A\	-ie-	1d\	t(er)-	.	.
2A\	vi-	.	.	.	.	2f\	-li-
!	!	!	!	!	!LO:MO:mod=-rae	!	!LO:MO:mod=-um
2E\	-ſi-	1B\	.	2e\	-r(ae)	2g\	-u(m)
1G\	-bi-	.	.	2d\	vi-	2g\	om-
*	*	*Xlig	*	*	*	*	*
=10-	=10-	=10-	=10-	=10-	=10-	=10-	=10-
*	*	*lig	*	*	*	*	*
.	.	1c\	-ſta-	2e\	-ſi-	1a\	-ni-
2F\	-li-	.	.	2f\	-bi-	.	.
!	!	!	!	!	!	!	!LO:MO:mod=-um
1G\	-um	1B\	.	2e\	-li-	2g\	-(um)
.	.	.	.	1d\	-um	4d\	.
.	.	.	.	.	.	4e\	.
*	*	*Xlig	*	*	*	*	*
=11-	=11-	=11-	=11-	=11-	=11-	=11-	=11-
*	*	*custos:G	*	*	*	*	*
2D/	om-	0A\	.	.	.	2f\	.
2C/	-ni-	.	.	2e\	om-	1g\	.
!	!LO:MO:mod=-um	!	!	!	!	!	!
1D\	-(um)	.	.	1d\	-ni-	.	.
.	.	.	.	.	.	2f\	.
!	!	!LO:LB:g=original	!	!	!	!	!
=12-	=12-	=12-	=12-	=12-	=12-	=12-	=12-
*	*	*xywh-#462:6058,2292,4239,813	*	*	*	*	*
!	!	!	!	!	!LO:MO:mod=-um	!	!
2r	.	0G/	-tis	2B/	-(um)	2g\	.
!	!LO:MO:mod=et	!	!	!	!LO:MO:mod=et	!	!LO:MO:mod=et
2C/	e(t)	.	.	1c\	e(t)	1e\	e(t)
2C/	in-	.	.	.	.	.	.
*	*	*	*	*	*	*custos:f	*
!	!LO:MO:mod=-vi-	!	!	!	!	!	!
2G\	-ui-	.	.	2B/	in-	2d\	in-
!	!	!	!	!	!	!LO:LB:g=original	!
=13-	=13-	=13-	=13-	=13-	=13-	=13-	=13-
*	*	*	*	*	*	*xywh-#80:5991,1588,4165,810	*
2.F\	-ſi-	0c\	Ve-	2.A/	-vi-	2.f\	-vi-
4F\	-bi-	.	.	4A/	-ſi-	4f\	-ſi-
2F\	-li-	.	.	2A/	-bi-	2f\	-bi-
2C/	-um	.	.	2G/	-li-	2e\	-li-
=14-	=14-	=14-	=14-	=14-	=14-	=14-	=14-
!	!	!	!	!	!	!	!LO:MO:mod=-um
2r	.	1c\	-ne-	1A/	-um	2c/	-u(m)
*custos:F	*	*	*	*	*	*	*
!	!LO:MO:mod=et	!	!	!	!	!	!
2F\	e(t)	.	.	.	.	1f\	Et
*xywh-#634:5768,733,4188,897	*	*	*	*	*	*	*
!LO:PB:g=original	!	!	!	!	!	!	!
2F\	in	1c\	-ran-	1r	.	.	.
!	!LO:MO:mod=u-	!	!	!	!	!	!
2C/	v-	.	.	.	.	2e\	in
=15-	=15-	=15-	=15-	=15-	=15-	=15-	=15-
!	!LO:MO:mod=-num	!	!LO:MO:mod=-dum	!	!	!	!LO:MO:mod=u-
2F\	-nu(m)	1c\	-(dum)	1r	.	1f\	v-
!	!LO:MO:mod=Do-	!	!	!	!	!	!
1A\	d(o-	.	.	.	.	.	.
!	!	!	!	!	!	!	!LO:MO:mod=-num
.	.	1B\	tu-	2r	.	2d\	-nu(m)
*	*	*	*	*custos:c	*	*	*
!	!LO:MO:mod=-mi-	!	!	!	!	!	!LO:MO:mod=Do-
2G\	-mi)-	.	.	2B/	Do-	1e\	d(o-
!	!	!	!	!LO:LB:g=original	!	!	!
=16-	=16-	=16-	=16-	=16-	=16-	=16-	=16-
*	*	*	*	*xywh-#268:1479,1525,4162,864	*	*	*
!	!LO:MO:mod=-num	!	!LO:MO:mod=-um	!	!	!	!
2A\	-n(u)m	1A\	-u(m)	2c/	-mi-	.	.
!	!LO:MO:mod=nos-	!	!	!	!LO:MO:mod=-num	!	!LO:MO:mod=-mi-
2F\	n(os-	.	.	2A/	-nu(m)	2d\	-mi)-
!	!LO:MO:mod=-trum	!	!	!	!LO:MO:mod=nos-	!	!LO:MO:mod=-num
1E\	-t)r(u)m	1B\	Ve-	1e\	n(os-	2e\	-n(u)m
!	!	!	!	!	!	!	!LO:MO:mod=nos-
.	.	.	.	.	.	2B/	n(os-
=17-	=17-	=17-	=17-	=17-	=17-	=17-	=17-
!	!	!	!LO:MO:mod=-rum	!	!LO:MO:mod=-trum	!	!LO:MO:mod=-trum
2r	.	1A\	-ru(m)	2e\	-t)r(u)m	2c/	-t)r(u)m
!	!LO:MO:mod=Je-	!	!	!	!	!	!
2D/	Ie-	.	.	1d\	Je-	2d\	Je-
!	!LO:MO:mod=-sum	!	!LO:MO:mod=et	!	!	!	!LO:MO:mod=-sum
1AA/	-ſu(m)	1A\	e(t)	.	.	1e\	-ſu(m)
!	!	!	!	!	!LO:MO:mod=-sum	!	!
.	.	.	.	2c/	-ſu(m)	.	.
=18-	=18-	=18-	=18-	=18-	=18-	=18-	=18-
!	!LO:MO:mod=Chri-	!	!LO:MO:mod=u-	!	!LO:MO:mod=Chri-	!	!LO:MO:mod=Chri-
1D\	Chr(i-	1A\	v-	1d\	Chr(i-	1f\	Chr(i-
!	!LO:MO:mod=-stum	!	!	!	!LO:MO:mod=-stum	!	!LO:MO:mod=-stum
1GG/	-stu)m	1G/	-ni-	2B/	-stu)m	2d\	-stu)m
!	!	!	!	!	!LO:MO:mod=Fi-	!	!LO:MO:mod=Fi-
.	.	.	.	2B/	fi-	2d\	fi-
=19-	=19-	=19-	=19-	=19-	=19-	=19-	=19-
*	*	*lig	*	*	*	*	*
!	!	!	!LO:MO:mod=-cum	!	!	!	!
2r	.	1A\	-cu(m)	2c/	 li-	2e\	 li-
*	*	*	*	*	*	*custos:d	*
!	!LO:MO:mod=Fi-	!	!	!	!	!	!
2D/	fi-	.	.	2.d\	-um	2f\	-um
*	*	*	*	*	*	*xywh-#80:5998,2410,4131,820	*
!	!	!	!	!	!	!LO:LB:g=original	!
2BB/	-li-	1B\	.	.	.	2d\	De-
.	.	.	.	4c/	.	.	.
2GG/	-um	.	.	4B/	.	2d\	-i
.	.	.	.	4A/	.	.	.
*	*	*Xlig	*	*	*	*	*
=20-	=20-	=20-	=20-	=20-	=20-	=20-	=20-
*	*	*lig	*	*	*	*	*
!	!	!	!LO:MO:mod=Fi-	!	!	!	!LO:MO:mod=u-
2C/	de-	1c\	fi-	2G/	De-	2e\	v-
2AA/	-i	.	.	2A/	-i	2e\	-ni-
!	!LO:MO:mod=u-	!	!	!	!	!	!
2BB/	V-	1B\	.	2r	.	2.d\	-ge-
!	!	!	!	!	!LO:MO:mod=u-	!	!
2GG/	-ni-	.	.	2B/	v-	.	.
.	.	.	.	.	.	4d\	-ni-
*	*	*Xlig	*	*	*	*	*
=21-	=21-	=21-	=21-	=21-	=21-	=21-	=21-
!	!	!	!	!	!	!	!LO:MO:mod=-tum
1D\	-ge-	0A\	-li-	2d\	-ni-	1d\	-tu(m)
.	.	.	.	2A/	-ge-	.	.
*custos:GG	*	*	*	*	*	*	*
1D\	-ni-	.	.	1d\	-ni-	2r	.
.	.	.	.	.	.	1d\	Et
!LO:LB:g=original	!	!	!	!	!	!	!
=22-	=22-	=22-	=22-	=22-	=22-	=22-	=22-
*xywh-#634:5741,1583,4256,809	*	*	*	*	*	*	*
!	!	!	!	!	!LO:MO:mod=-tum	!	!
1GG/	-tum	1G/	-um	2B/	-tu(m)	.	.
!	!	!	!	!	!LO:MO:mod=Et	!	!
.	.	.	.	2B/	e(t)	2d\	ex
!	!	!	!	!	!	!	!LO:MO:mod=Pa-
1r	.	2r	.	2c/	ex	2e\	p(at)-
*	*	*	*	*custos:d	*	*	*
!	!	!	!	!	!LO:MO:mod=Pa-	!	!LO:MO:mod=-tre
.	.	1A\	Et	2d\	pa-	2.f\	-re
!	!	!	!	!LO:LB:g=original	!	!	!
=23-	=23-	=23-	=23-	=23-	=23-	=23-	=23-
*	*	*	*	*xywh-#268:1490,2373,4070,686	*	*	*
!	!LO:MO:mod=et	!	!	!	!	!	!
2.D/	e(t)	.	.	2.d\	-tre	.	.
.	.	.	.	.	.	4e\	.
*	*	*custos:B	*	*	*	*	*
.	.	2A/	ex	.	.	1d\	na-
4D/	ex	.	.	4c/	.	.	.
*	*	*xywh-#462:6075,3140,4216,807	*	*	*	*	*
!	!LO:MO:mod=Pa-	!LO:LB:g=original	!LO:MO:mod=Pa-	!	!	!	!
2G\	p(at)-	2B\	p(at)-	4B/	.	.	.
.	.	.	.	4A/	.	.	.
!	!LO:MO:mod=-tre	!	!LO:MO:mod=-tre	!	!	!	!LO:MO:mod=-tum
2C/	-re	2c\	-re	1G/	na-	2e\	-tu(m)
=24-	=24-	=24-	=24-	=24-	=24-	=24-	=24-
1D\	na-	1A\	na-	.	.	2r	.
!	!	!	!	!LO:TX:t=P:problem=# below	!	!	!
.	.	.	.	2F#X/	.	2d\	an
!	!LO:MO:mod=-tum	!	!LO:MO:mod=-tum	!	!LO:MO:mod=-tum	!	!LO:MO:null:mod=-te
2GG/	-tu(m)	2G/	-tu(m)	2G/	-tu(m)	2g\	.
!	!	!	!	!	!LO:MO:mod=an-	!	!
2G\	an-	2G/	an-	2B/	an	2g\	om-
=25-	=25-	=25-	=25-	=25-	=25-	=25-	=25-
!	!	!	!LO:MO:mod=-te	!	!LO:MO:null:mod=-te	!	!
2D/	-te	2A/	-(te)	2d\	.	2f\	-ni-
*	*	*	*	*	*	*custos:e	*
!	!	!	!LO:MO:mod=om-	!	!LO:MO:mod=om-	!	!
2G\	om-	2B\	o(m-	2d\	o(m-	2d\	-a
*	*	*	*	*	*	*xywh-#80:5988,3182,4141,728	*
!	!	!	!LO:MO:mod=-ni-	!	!LO:MO:mod=-ni-	!LO:LB:g=original	!LO:MO:mod=sae-
2C/	-ni-	2c\	-n)i-	2c/	-n)i-	2.e\	ſe-
2C/	-a	2c\	-a	1e\	-a	.	.
.	.	.	.	.	.	4d\	.
=26-	=26-	=26-	=26-	=26-	=26-	=26-	=26-
!	!LO:MO:mod=sae-	!	!LO:MO:mod=sae-	!	!	!	!
1E\	ſe-	2B\	ſe-	.	.	4e\	.
.	.	.	.	.	.	4f\	.
.	.	4A/	.	2c/	.	1g\	.
.	.	4G/	.	.	.	.	.
!	!LO:MO:mod=-cu-	!	!	!	!LO:MO:mod=sae-	!	!
1D\	-c(u)-	2A/	.	2d\	ſe-	.	.
.	.	2A/	-cu-	2d\	-cu-	2f\	-cu-
=27-	=27-	=27-	=27-	=27-	=27-	=27-	=27-
*	*	*custos:E	*	*custos:c	*	*	*
!	!	!	!	!	!LO:MO:mod=-la	!	!LO:MO:mod=-la
0GG/;	-la	0G/;	-la	0B/;	-la.	0gl\;	-la.
!LO:LB:g=original	!	!LO:PB:g=original	!	!LO:LB:g=original	!	!	!
=28-	=28-	=28-	=28-	=28-	=28-	=28-	=28-
*xywh-#634:5810,2372,4161,754	*xywh-#463:1714,616,4045,813	*	*	*xywh-#268:1508,3138,4098,1037	*	*	*
1AA/	De-	2.E/	De-	1c\	De-	1e\	De-
.	.	4F/	.	.	.	.	.
2E\	-um	2G/	-um	2B/	-um	1e\	-um
2AA/	de	1A\	de	2A/	de	.	.
=29-	=29-	=29-	=29-	=29-	=29-	=29-	=29-
!	!LO:MO:mod=De-	!	!	!	!	!	!
1E\	de-	.	.	1B/	De-	2e\	de
.	.	2G/	De-	.	.	2.e\	De-
1AA/	-o	2A/	-o	1c\	-o	.	.
.	.	.	.	.	.	4d\	.
.	.	2A/	lu-	.	.	4c/	.
.	.	.	.	.	.	4B/	.
=30-	=30-	=30-	=30-	=30-	=30-	=30-	=30-
!	!	!	!LO:MO:mod=-men	!	!	!	!
2r	.	1c\	-me(n)	0r	.	2A/	-o
2AA/	lu-	.	.	.	.	2A/	lu-
!	!LO:MO:mod=-men	!	!	!	!	!	!
2BB/	-me(n)	2B\	de	.	.	2d\	-men
*	*	*	*	*	*	*custos:f	*
2C/	de	1A\	lu-	.	.	2c/	de
!	!	!	!	!	!	!LO:PB:g=original	!
=31-	=31-	=31-	=31-	=31-	=31-	=31-	=31-
*	*	*	*	*	*	*xywh-#81:1434,797,4106,868	*
2D/	lu-	.	.	2r	.	2f\	lu-
2E\	-mi-	2G/	-mi-	1e\	De-	4e\	.
.	.	.	.	.	.	4d\	.
1AA/	-ne	2A/	-ne	.	.	2.c/	-mi-
.	.	1A\	De-	2e\	-um	.	.
.	.	.	.	.	.	4B/	.
=32-	=32-	=32-	=32-	=32-	=32-	=32-	=32-
2r	.	.	.	2.e\	ve-	2A/	-ne
2AA/	De-	2A/	-um	.	.	1e\	De-
.	.	.	.	4d\	.	.	.
!	!LO:MO:mod=-um	!	!	!	!	!	!
2AA/	-u(m)	1A\	ve-	4c/	.	.	.
.	.	.	.	4B/	.	.	.
!	!	!	!	!	!LO:MO:mod=-rum	!	!LO:MO:mod=-um
2AA/	ve-	.	.	2c/	-ru(m)	2e\	-u(m)
=33-	=33-	=33-	=33-	=33-	=33-	=33-	=33-
!	!LO:MO:mod=-rum	!	!LO:MO:mod=-rum	!	!	!	!LO:MO:mod=ve-
2.E\	-ru(m)	2G/	-ru(m)	2B/	de	2e\	Ve-
!	!	!	!	!	!	!	!LO:MO:mod=-rum
.	.	2G/	de	2B/	De-	2B/	-ru(m)
4D/	de	.	.	.	.	.	.
2C/	De-	2A/	De-	2A/	-o	2c/	de
*	*	*custos:c	*	*	*	*	*
2BB/	-o	2B\	-o	1G/	.	2d\	De-
!	!	!LO:LB:g=original	!	!	!	!	!
=34-	=34-	=34-	=34-	=34-	=34-	=34-	=34-
*	*	*xywh-#463:1650,1441,4033,853	*	*	*	*	*
1AA/	ve-	1c\	ve-	.	.	2e\	-o
.	.	.	.	2Fny/	ve-	2f\	ve-
*custos:C	*	*	*	*	*	*	*
0GG/	-ro	1B\	-ro	1G/	-ro	2d\	-ro
.	.	.	.	.	.	1d\	ge-
=35-	=35-	=35-	=35-	=35-	=35-	=35-	=35-
.	.	2r	.	1B/	ge-	.	.
.	.	1G/	ge-	.	.	2d\	-ni-
!	!	!	!	!	!	!	!LO:MO:mod=-tum
0r	.	.	.	2B/	-ni-	2e\	-tu(m)
!	!	!	!	!	!LO:MO:mod=-tum	!	!
.	.	2G/	-ni-	1B/	-tu(m)	2.d\	non
=36-	=36-	=36-	=36-	=36-	=36-	=36-	=36-
!	!	!	!LO:MO:mod=-tum	!	!	!	!
.	.	2G/	-tu(m)	.	.	.	.
.	.	.	.	.	.	4c/	.
*	*	*	*	*custos:d	*	*	*
!	!	!	!LO:MO:mod=non	!	!LO:MO:mod=non	!	!
.	.	2A/	no(n)	2c/	non.	1c\	.
*	*	*	*	*xywh-#268:5968,720,4237,795	*	*	*
!	!	!	!LO:MO:mod=fac-	!LO:PB:g=original	!LO:MO:mod=fac-	!	!
1r	.	1G/	f(a)c-	1d\	f(a)c-	.	.
*	*	*	*	*	*	*custos:c	*
!	!	!	!	!	!	!	!LO:MO:mod=fac-
.	.	.	.	.	.	2B/	fa-
!LO:LB:g=original	!	!	!	!	!	!LO:LB:g=original	!
=37-	=37-	=37-	=37-	=37-	=37-	=37-	=37-
*xywh-#634:5837,3197,4256,761	*	*	*	*	*	*xywh-#81:1439,1626,4123,752	*
!	!	!	!LO:MO:mod=-tum	!	!LO:MO:mod=-tum	!	!LO:MO:mod=-tum
1C/	Con-	2E/	-t(u)m	2e\	-t(u)m	2c/	-ctu(m)
!	!	!	!LO:MO:mod=con-	!	!LO:MO:mod=con-	!	!LO:MO:mod=con-
.	.	1G/	Co(n)-	2c/	Con-	1e\	Co(n)-
2C/	-ſub-	.	.	1c\	-ſub-	.	.
1C/	-ſtan-	2G/	-ſub-	.	.	2e\	-ſub-
=38-	=38-	=38-	=38-	=38-	=38-	=38-	=38-
!	!	!	!LO:MO:mod=-stan-	!	!LO:MO:mod=-stan-	!	!LO:MO:mod=-stan-
.	.	2G/	-ſta(n)-	2c/	-ſta(n)-	2e\	-ſta(n)-
2E\	-ti-	2G/	-ti-	2c/	-ti-	2e\	-ti-
2D/	-a-	2A/	-a-	2d\	-a-	2f\	-a-
!	!	!	!	!	!LO:MO:mod=-lem	!	!
2GG/	.	2G/	-lem	2d\	-le(m)	1g\	-lem
=39-	=39-	=39-	=39-	=39-	=39-	=39-	=39-
!	!	!	!LO:MO:mod=Pa-	!	!LO:MO:mod=Pa-	!	!
1D\	-lem	1A\	p(at)-	1d\	p(at)-	.	.
!	!	!	!	!	!	!	!LO:MO:mod=Pa-
.	.	.	.	.	.	2f\	pa-
!	!LO:MO:mod=Pa-	!	!LO:MO:mod=-tri	!	!LO:MO:mod=-tri	!	!LO:MO:null:mod=.
2.E\	pa-	2G/	-ri	1B/	-ri	2.g\	-tri
.	.	1E/	per	.	.	.	.
4D/	.	.	.	.	.	4f\	.
=40-	=40-	=40-	=40-	=40-	=40-	=40-	=40-
!	!LO:MO:null:mod=.	!	!	!	!	!	!
4C/	-tri	.	.	2r	.	4e\	.
4BB/	.	.	.	.	.	4d\	.
!	!LO:MO:null:mod=-tri	!	!LO:MO:mod=quem	!	!	!	!LO:MO:null:mod=-tri
2AA/	.	2E/	que(m)	1A/	per	2c/	.
1r	.	2F/	om-	.	.	2d\	per
*	*	*custos:G	*	*	*	*	*
!	!	!	!	!	!LO:MO:mod=quem	!	!LO:MO:mod=quem
.	.	2F/	-ni-	2A/	que(m)	2d\	que(m)
!	!	!LO:LB:g=original	!	!	!	!	!
=41-	=41-	=41-	=41-	=41-	=41-	=41-	=41-
*	*	*xywh-#463:1639,2255,4045,813	*	*	*	*	*
2r	.	2G/	-a	2B/	om-	1e\	om-
1AA/	per	1A\	fa-	1c\	-ni-	.	.
.	.	.	.	.	.	2e\	-ni-
2D/	quem	4G/	.	2d\	-a	2.f\	-a
.	.	4F/	.	.	.	.	.
=42-	=42-	=42-	=42-	=42-	=42-	=42-	=42-
!	!	!	!LO:MO:null:mod=.	!	!LO:MO:mod=fa-	!	!
2E\	.	2G/	-cta	2B/	fac-	.	.
!	!	!	!	!	!	!	!LO:MO:null:mod=.
.	.	.	.	.	.	4e\	f(ac)-
!	!	!	!	!	!	!	!LO:MO:null:mod=fa-
2AA/	om-	2A/	.	2c/	.	1e\	-ta
!	!	!	!LO:MO:mod=-cta	!	!LO:MO:mod=-cta	!	!
1D\	-ni-	1F/	ſunt.	1A/	-ta	.	.
!	!	!	!	!	!	!	!LO:MO:null:mod=-cta
.	.	.	.	.	.	2d/	.
=43-	=43-	=43-	=43-	=43-	=43-	=43-	=43-
*	*	*	*	*	*	*custos:e	*
!	!	!LO:MO:mod=[0E	!LO:MO:null:mod=sunt	!	!	!LO:MO:mod=[0e	!LO:MO:mod=sunt
2.C/	-a	00E/;	.	1.c\	ſunt	00el\;	sunt.
!	!LO:MO:null:mod=.	!	!	!	!	!	!
4BB/	fa-	.	.	.	.	.	.
!	!LO:MO:null:mod=fa-	!	!	!	!	!	!
2AA/	.	.	.	.	.	.	.
!	!LO:MO:null:mod=.	!	!	!	!	!	!
2GG/	-cta	.	.	2B/	.	.	.
=44-	=44-	=44-	=44-	=44-	=44-	=44-	=44-
!	!LO:MO:mod=-cta	!LO:MO:null:mod=0E];	!	!	!	!LO:MO:null:mod=0e];	!
1AA/	ſunt	.	.	1A/	.	.	.
*	*	*	*	*custos:B	*	*	*
*custos:E	*	*	*	*	*	*	*
!	!LO:MO:null:mod=sunt	!	!	!LO:TX:t=P:problem=# below	!	!	!
1E\;	.	.	.	1G#X/;	.	.	.
!LO:PB:g=original	!	!	!	!LO:LB:g=original	!	!LO:LB:g=original	!
=45||	=45||	=45||	=45||	=45||	=45||	=45||	=45||
*M3/1	*	*M3/1	*	*M3/1	*	*M3/1	*
*xywh-#635:1412,661,4194,897	*	*	*	*xywh-#268:5997,1545,4168,801	*	*xywh-#81:1497,2402,4094,764	*
0E\	Qui	0E/	Qui	0B/	Qui	0e\	Qui
!	!LO:MO:mod=prop-	!	!LO:MO:mod=prop-	!	!LO:MO:mod=prop-	!	!LO:MO:mod=prop-
1E\	p(ro)p-	1G/	p(ro)p-	1B/,	p(ro)p-	1e\,	prop-
=46-	=46-	=46-	=46-	=46-	=46-	=46-	=46-
!	!LO:MO:mod=-ter	!	!LO:MO:mod=-ter	!	!LO:MO:mod=-ter	!	!LO:MO:mod=-ter
0AA/	-t(er)	0A\	-t(er)	0c\	-t(er)	0e\	-t(er)
1D\	nos	1A\	nos	1d\,	nos	1f\,	nos
=47-	=47-	=47-	=47-	=47-	=47-	=47-	=47-
1C/	ho-	1.A\	ho-	1A/	ho-	1e\	ho-
*col	*	*	*	*col	*	*col	*
0BB/	-mi-	.	.	0B/,	-mi-	0d\,	-mi-
.	.	4G/	.	.	.	.	.
.	.	4F/	.	.	.	.	.
*	*	*custos:A	*	*	*	*	*
.	.	1G/	-mi-	.	.	.	.
*Xcol	*	*	*	*Xcol	*	*Xcol	*
!	!	!LO:LB:g=original	!	!	!	!	!
=48-	=48-	=48-	=48-	=48-	=48-	=48-	=48-
*	*	*xywh-#463:1635,3049,4033,716	*	*	*	*	*
!	!LO:MO:mod=-nes	!	!	!	!	!	!
0AA/	-(n)es	0A\	-nes	0.c\,	-nes	0.c\,	-nes
!	!LO:MO:mod=et	!	!LO:MO:mod=et	!	!	!	!
1AA/	e(t)	1A\	e(t)	.	.	.	.
=49-	=49-	=49-	=49-	=49-	=49-	=49-	=49-
!	!	!	!LO:MO:mod=pro-	!	!LO:MO:mod=et	!	!LO:MO:mod=et
2C/	pro-	0G/	p(ro)p-	0e\	e(t)	1g\	e(t)
2D/	.	.	.	.	.	.	.
!	!	!	!	!	!	!	!LO:MO:mod=pro-
2E\	.	.	.	.	.	1g\	prop-
!	!LO:MO:null:mod=.	!	!	!	!	!	!
2F\	-pt(er)	.	.	.	.	.	.
!	!LO:MO:null:mod=-pter	!	!LO:MO:mod=-pter	!	!LO:MO:mod=pro-	!	!LO:MO:mod=-pter
1G\	.	1B\	-t(er)	1e\,	p(ro)p-	1g\,	-t(er)
=50-	=50-	=50-	=50-	=50-	=50-	=50-	=50-
!	!LO:MO:mod=nos-	!	!LO:MO:mod=nos-	!	!LO:MO:mod=-pter	!	!LO:MO:mod=nos-
0C/	n(ost)-	0c\	n(ost)-	0e\	-t(er)	2e\	no-
.	.	.	.	.	.	2f\	.
.	.	.	.	.	.	2g\	.
.	.	.	.	.	.	2e\	.
*	*	*	*	*	*	*custos:d	*
!	!LO:MO:mod=-tram	!	!LO:MO:mod=-tram	!	!LO:MO:mod=nos-	!	!LO:MO:mod=-tram
1D\	-ram	1A\	-ram	1d\,	n(os-	1f\,	-ſtra(m)
!	!	!	!	!	!	!LO:LB:g=original	!
=51-	=51-	=51-	=51-	=51-	=51-	=51-	=51-
*	*	*	*	*	*	*xywh-#81:1420,3180,4146,758	*
!	!	!	!	!	!LO:MO:mod=-tram	!	!
1BB/	ſa-	1B\	ſa-	1d\	-t)ram	1d\	ſa-
*col	*	*col	*	*	*	*	*
0E\	-lu-	0G/	-lu-	1B/	ſa-	0e\,	-lu-
.	.	.	.	1B/,	-lu-	.	.
*Xcol	*	*Xcol	*	*	*	*	*
=52-	=52-	=52-	=52-	=52-	=52-	=52-	=52-
*	*	*	*	*col	*	*	*
!	!LO:MO:mod=-tem	!	!	!	!LO:MO:mod=-tem	!	!LO:MO:mod=-tem
0AA/	-t(em)	0A\	-tem	0c\	-te(m)	1c\	-te(m)
.	.	.	.	.	.	1e\	de-
*	*	*	*	*Xcol	*	*	*
!	!	!	!	!	!	!	!LO:MO:mod=-scen-
1D\	de-	1A\	de-	1r,	.	1d\,	-ſce(n)-
=53-	=53-	=53-	=53-	=53-	=53-	=53-	=53-
0C/	-ſcen-	0c\	-ſcen-	0e\	de-	1G/	-dit
*	*	*	*	*	*	*	*ij
.	.	.	.	.	.	1g\	de-
*custos:AA	*	*	*	*	*	*	*
!	!	!	!	!	!	!	!LO:MO:mod=-scen-
1GG/	-dit	1B\	-dit	1d\,	-ſcen-	1g\,	-ſce(n)-
!LO:LB:g=original	!	!	!	!	!	!	!
=54-	=54-	=54-	=54-	=54-	=54-	=54-	=54-
*xywh-#635:1420,1494,4243,881	*	*	*	*	*	*	*
!	!	!	!	!	!LO:MO:mod=-dit	!	!
1AA/	de	1A\	de	1c\	-(dit)	1e\	-dit
*col	*	*	*	*	*	*	*Xij
!	!LO:MO:mod=cae-	!	!LO:MO:mod=cae-	!	!	!	!
0E\	c(ae)-	0B\	c(ae)-	1e\	de	1e\	de
!	!	!	!	!	!LO:MO:mod=cae-	!	!LO:MO:mod=cae-
.	.	.	.	1B/,	c(ae)-	1e\,	c(ae)-
*Xcol	*	*	*	*	*	*	*
=55-	=55-	=55-	=55-	=55-	=55-	=55-	=55-
*	*	*custos:A	*	*custos:c	*	*custos:e	*
!	!	!	!	!	!LO:MO:mod=-lis	!	!
0.AA/;	-lis	0.A\;<	-lis	0.c\;	-liſ.	0.e\;	-lis
!LO:MO:mod==56||	!	!LO:MO:mod==56||	!	!LO:LB:g=original	!	!	!
!	!	!	!	!LO:MO:mod==56||	!	!LO:MO:mod==56||	!
=56-	=56-	=56-	=56-	=56-	=56-	=56-	=56-
*M2/1	*	*M2/1	*	*M2/1	*	*M2/1	*
*met(C|)	*	*met(C|)	*	*met(C|)	*	*met(C|)	*
*mmet(c|)	*	*mmet(c|)	*	*mmet(c|)	*	*mmet(c|)	*
*	*	*xywh-#463:6016,746,4205,842	*	*xywh-#268:5991,2340,4133,835	*	*xywh-#81:5953,697,4071,874	*
!	!	!LO:PB:g=original	!	!	!	!LO:PB:g=original	!LO:MO:mod=Et
0AA/	Et	0A\	Et	0c\	Et	0e\	E(t)
=57-	=57-	=57-	=57-	=57-	=57-	=57-	=57-
1C/	in-	1G/	in-	1c\	in-	1e\	in-
1GG/	-car-	1B\	-car-	1d\	-car-	1g\	-car-
=58-	=58-	=58-	=58-	=58-	=58-	=58-	=58-
1.C/	-na-	1.c\	-na-	1.e\	-na-	1.g\	-na-
!	!	!	!	!	!	!	!LO:MO:mod=-tus
2D/	-tus	2A/	-tus	1d\	-tus	2f\	-t(us)
=59-	=59-	=59-	=59-	=59-	=59-	=59-	=59-
1AA/	eſt	1A\	eſt	.	.	1e\	eſt
.	.	.	.	2c/	eſt	.	.
1D\	de	1A\	de	1d\	.	2r	.
.	.	.	.	.	.	2d\	de
=60-	=60-	=60-	=60-	=60-	=60-	=60-	=60-
*	*	*lig	*	*	*	*	*
!	!LO:MO:mod=Spi-	!	!LO:MO:mod=Spi-	!	!	!	!LO:MO:mod=Spi-
2C/	ſp(i-	1A\	ſpi-	2r	.	2e\	ſpi-
2D/	-ri-	.	.	2d/	de	2.f\	-ri-
!	!LO:MO:mod=-tu	!	!	!	!LO:MO:mod=Spi-	!	!
1E\	-t)u	1G/	.	2B/	Sp(i-	.	.
!	!	!	!	!	!	!	!LO:MO:null:mod=.
.	.	.	.	.	.	4e\	-tu
!	!	!	!	!	!	!	!LO:MO:null:mod=-tu
.	.	.	.	1c\	-ri-	1e\	.
*	*	*Xlig	*	*	*	*	*
=61-	=61-	=61-	=61-	=61-	=61-	=61-	=61-
1F\	ſanc-	1A\	-ri-	.	.	.	.
!	!	!	!	!	!LO:MO:mod=-tu	!	!LO:MO:mod=san-
.	.	.	.	2A/	-t)u	2d\	ſ(an)-
1E\	-to	1B\	-tu	2r	.	2e\	-cto
*	*	*	*	*	*ij	*	*ij
.	.	.	.	2e\	de	2g\	de
=62-	=62-	=62-	=62-	=62-	=62-	=62-	=62-
!	!LO:MO:null:mod=[san-	!	!LO:MO:mod=san-	!	!LO:MO:mod=Spi-	!	!
2.E\	.	0G/	ſ(an)-	2e\	Sp(i-	1g\	ſpi-
.	.	.	.	2B/	-ri-	.	.
*custos:C	*	*	*	*	*	*	*
4D/	.	.	.	.	.	.	.
*xywh-#635:1388,2269,4210,922	*	*	*	*	*	*	*
!LO:LB:g=original	!	!	!	!	!LO:MO:mod=-tu	!	!
2C/	.	.	.	2c/	-t)u	2g\	-ri-
*	*	*	*	*	*Xij	*	*
!	!	!	!	!	!LO:MO:mod=san-	!	!
2BB/	.	.	.	1d\	San-	2d\	-tu
=63-	=63-	=63-	=63-	=63-	=63-	=63-	=63-
!	!LO:MO:null:mod=-cto]	!	!	!	!	!	!
0AA/;	.	0A\;	-cto	.	.	2r	.
!	!	!	!	!	!	!	!LO:MO:mod=san-
.	.	.	.	4c/	.	2e\	ſ(an)-
.	.	.	.	4B/	.	.	.
*	*	*	*	*custos:d	*	*custos:f	*
.	.	.	.	1cl\;	-cto	1e\;	-cto
*	*	*	*	*	*	*	*Xij
!	!	!	!	!LO:LB:g=original	!	!LO:LB:g=original	!
=64-	=64-	=64-	=64-	=64-	=64-	=64-	=64-
*	*	*	*	*xywh-#268:5999,3191,4139,1026	*	*xywh-#81:5965,1531,4210,839	*
0D\	Ex	0A\	Ex	0d\	Ex	0f\	Ex
=65-	=65-	=65-	=65-	=65-	=65-	=65-	=65-
1AA/	Ma-	1A\	Ma-	1e\	Ma-	1c\	Ma-
0D\	-ri-	0A\	-ri-	0f\	-ri-	0d\	-ri-
=66-	=66-	=66-	=66-	=66-	=66-	=66-	=66-
*	*	*custos:F	*	*	*	*	*
1GG/	-a	1G/	-a	1d\	-a	1B/	-a
!	!	!LO:LB:g=original	!	!	!	!	!
=67-	=67-	=67-	=67-	=67-	=67-	=67-	=67-
*	*	*xywh-#463:6016,1571,4148,784	*	*	*	*	*
!	!LO:MO:mod=Vir-	!	!	!	!LO:MO:mod=Vir-	!	!LO:MO:mod=Vir-
1.BB-X/	vir-	1.F/	Vir-	1.B-X/	vir-	1.d\	vir-
2C/	-gi-	2E/	-gi-	2Gny/	-gi-	2c/	-gi-
=68-	=68-	=68-	=68-	=68-	=68-	=68-	=68-
1AA/	-ne	1E/	-ne	1A/	-ne	1c\	-ne
!	!LO:MO:mod=et	!	!LO:MO:mod=et	!	!LO:MO:mod=et	!	!LO:MO:mod=et
1AA/	e(t)	1E/	e(t)	1c\	e(t)	1e\	e(t)
=69-	=69-	=69-	=69-	=69-	=69-	=69-	=69-
1AA/	ho-	1A\	ho-	1c\	ho-	1e\	ho-
!	!LO:MO:null:mod=.	!	!LO:MO:mod=-mo	!	!LO:MO:null:mod=-mo	!	!
1C/	-mo	1.G/	-(mo)	2c/	.	2.c/	-mo
!	!	!	!	!	!LO:MO:mod=fac-	!	!
.	.	.	.	2.e\	-mo	.	.
.	.	.	.	.	.	4B/	.
=70-	=70-	=70-	=70-	=70-	=70-	=70-	=70-
!	!LO:MO:null:mod=-mo	!	!	!	!	!	!
1C/	.	.	.	.	.	4c/	.
.	.	.	.	4d\	.	4d\	.
.	.	2E/	fac-	4c/	.	1e\	fac-
!	!	!	!	!	!LO:MO:null:mod=.	!	!
.	.	.	.	4Bny/	fa-	.	.
!	!LO:MO:null:mod=.	!	!	!	!LO:MO:mod=-tus	!	!
1D\	fac-	1F/	-tus	1A/	-ctus	.	.
.	.	.	.	.	.	2d\	-tus
=71-	=71-	=71-	=71-	=71-	=71-	=71-	=71-
*	*	*	*	*	*	*custos:e	*
!	!LO:MO:mod=fac-	!LO:MO:mod=[0E	!LO:MO:mod=est	!	!LO:MO:null:mod=est	!LO:MO:mod=[0el	!
1.AA/	-tus	[0E/;l	eſt.	1.A/	.	[0e\;l	eſt
!	!	!	!	!	!LO:MO:null:mod=.	!	!
2GG/	.	.	.	2B/	eſt	.	.
=72-	=72-	=72-	=72-	=72-	=72-	=72-	=72-
*	*	*	*	*	*ij	*	*
!	!LO:MO:null:mod=-tus	!	!	!	!	!	!
1AA/	.	0E_	.	1.c\	fa-	0e_	.
!LO:MO:mod=[1E	!	!	!	!	!	!	!
[1E\;l	eſt	.	.	.	.	.	.
.	.	.	.	4B/	-ctus	.	.
.	.	.	.	4A/	.	.	.
!LO:LB:g=original	!	!	!	!	!	!	!
=73-	=73-	=73-	=73-	=73-	=73-	=73-	=73-
*	*	*	*	*custos:B	*	*	*
!LO:MO:mod=0E];	!	!LO:MO:mod=0E];	!	!	!	!LO:MO:mod=0e];	!
0E]	.	0E]	.	0B/;	eſt	0e]	.
*	*	*	*	*	*Xij	*	*
*xywh-#635:1494,3134,4096,856	*	*	*	*	*	*	*
!	!	!	!	!LO:PB:g=original	!	!LO:LB:g=original	!
!LO:MO:mod==74||	!	!LO:MO:mod==74||	!	!LO:MO:mod==74||	!	!LO:MO:mod==74||	!
=74||-	=74||-	=74-	=74-	=74||-	=74||-	=74||-	=74||-
*	*	*	*	*xywh-#269:1574,700,4123,795	*	*xywh-#81:6006,2345,4083,828	*
00r	.	0r	.	1.B/	Cru-	0r	.
.	.	.	.	2B/	-ci-	.	.
=75-	=75-	=75-	=75-	=75-	=75-	=75-	=75-
.	.	1.E/	Cru-	2c/	-fi-	1r	.
.	.	.	.	1B/	-xus	.	.
.	.	.	.	.	.	1e\	Cru-
.	.	2E/	-ci-	1e\	e-	.	.
=76-	=76-	=76-	=76-	=76-	=76-	=76-	=76-
00r	.	1F/	-fi-	.	.	2c/	-ci-
.	.	.	.	2d\	-ti-	2d\	.
.	.	2E/	-xus	1.c\	-am	2e\	-fi-
*	*	*custos:G	*	*	*	*	*
.	.	2A/	e-	.	.	2f\	-xus
!	!	!LO:LB:g=original	!	!	!	!	!
=77-	=77-	=77-L	=77-	=77-	=77-	=77-	=77-
*	*	*xywh-#463:6005,2390,4136,784	*	*	*	*	*
.	.	2G/	-ti-	.	.	2r	.
!	!	!	!	!	!LO:MO:mod=pro	!	!
.	.	2F/	-am	2d\	p(ro)	2a\	e-
.	.	2E/	pro	2e\	no-	2g\	-ti-
!	!	!	!	!	!	!	!LO:MO:mod=-am
.	.	2D/	no-	2A/	-bis	2f\	-a(m)
=78-	=78-	=78-	=78-	=78-	=78-	=78-	=78-
!	!LO:MO:mod=sub	!	!	!	!	!	!
1AA/	Sub	2E/	-bis	2.c/	ſub	2e\	pro
!	!	!	!LO:MO:mod=sub	!	!	!	!
.	.	2E/	Sub	.	.	2e\	no-
.	.	.	.	4d\	.	.	.
2AA/	Pon-	2E/	Pon-	2e\	Pon-	2A/	-bis
!	!	!	!	!	!	!	!LO:MO:mod=sub
2AA/	-ti-	2E/	-ti-	2c/	-ti-	2e\	Sub
=79-	=79-	=79-	=79-	=79-	=79-	=79-	=79-
1.C/	-o	2E/	-o	2.c/	-o	2.e\	Pon-
.	.	2E/	Pi-	.	.	.	.
.	.	.	.	4d\	.	4d\	-ti-
.	.	1G/	-la-	4e\	.	2c/	-o
.	.	.	.	4f\	.	.	.
2GG/	Pi-	.	.	2g\	Pi-	2B/	Pi-
=80-	=80-	=80-	=80-	=80-	=80-	=80-	=80-
2AA/	-la-	2E/	-to	2.c/	-la-	1A/	-la-
2AA/	-to	1A\	paſ-	.	.	.	.
.	.	.	.	4d\	-to	.	.
*	*	*	*	*custos:B	*	*	*
2r	.	.	.	1e\	.	2E/	-to
2E\	paſ-	2G/	-sus	.	.	1e\	paſ-
!	!	!	!	!LO:LB:g=original	!	!	!
=81-	=81-	=81-	=81-	=81-	=81-	=81-	=81-
*	*	*	*	*xywh-#269:1554,1537,4067,760	*	*	*
!	!	!	!LO:MO:mod=et	!	!	!	!
2C/	-sus	2.c\	e(t)	0r	.	.	.
!	!LO:MO:mod=et	!	!	!	!	!	!
1F\	e(t)	.	.	.	.	2c\	-sus
.	.	4B\	ſe-	.	.	.	.
*	*	*	*	*	*	*custos:e	*
!	!	!	!	!	!	!	!LO:MO:mod=et
.	.	2A/	-pul-	.	.	1f\	e(t)
!	!	!	!LO:MO:mod=-tus	!	!	!	!
2D/	ſe-	2A/	-t(us)	.	.	.	.
!	!	!	!	!	!	!LO:LB:g=original	!
=82-	=82-	=82-	=82-	=82-	=82-	=82-	=82-
*	*	*	*	*	*	*xywh-#81:5977,3186,4083,741	*
!	!	!	!LO:MO:mod=est	!	!	!	!
2.E\	-pul-	1G/	e(st)	2r	.	2e\	ſe-
!	!	!	!	!	!LO:MO:mod=Et	!	!
.	.	.	.	2B/	e(t)	2.e\	-pul-
!	!LO:MO:mod=-tus	!	!	!	!	!	!
4E\	-t(us)	.	.	.	.	.	.
2AA/	eſt	2r	.	2c/	re-	.	.
.	.	.	.	.	.	4d\	-tus
*custos:E	*	*custos:G	*	*	*	*	*
!	!LO:MO:mod=Et	!	!	!	!	!	!
2AA/	e(t)	2A/	Et	1e\	-ſur-	2c/	.
!LO:PB:g=original	!	!LO:LB:g=original	!	!	!	!	!
=83-	=83-	=83-	=83-	=83-	=83-	=83-	=83-
*xywh-#635:5777,712,4193,816	*	*xywh-#463:5961,3121,4235,825	*	*	*	*	*
2E\	re-	2G/	re-	.	.	2B/	eſt
!	!	!	!	!	!	!	!LO:MO:mod=Et
1A\	-ſur-	2A/	-ſur-	2d\	-re-	2A/	e(t)
.	.	1B\	-re-	2e\	-xit	2e\	re-
2G\	-re-	.	.	2e\	ter-	2g\	-ſur-
=84-	=84-	=84-	=84-	=84-	=84-	=84-	=84-
2A\	-xit	2A/	-xit	2c/	-ci-	1f\	-re-
2F\	ter-	1A\	ter-	2d\	-a	.	.
2D/	-ci-	.	.	2d\	di-	2f\	-xit
2E\	-a	2G/	-ci-	2G/	-e	1e\	ter-
=85-	=85-	=85-	=85-	=85-	=85-	=85-	=85-
1F\	di-	1A\	-a	0r	.	.	.
.	.	.	.	.	.	2d\	-ci-
1E\	-e	1B\	di-	.	.	2e\	-a
.	.	.	.	.	.	2g\	di-
=86-	=86-	=86-	=86-	=86-	=86-	=86-	=86-
2r	.	2A/	-e	2c/	ſe-	2e\	-e
!	!LO:MO:mod=se-	!	!	!	!LO:MO:mod=-cun-	!	!
2A\	ſ(e)-	2c\	ſe-	1e\	-c(un)-	2a\	ſe-
!	!LO:MO:mod=-cun-	!	!LO:MO:mod=-cun-	!	!	!	!
2E\	-c(un)-	2B/	-cu(n)-	.	.	2g\	-cun-
!	!LO:MO:mod=-dum	!	!	!	!LO:MO:mod=-dum	!	!LO:MO:mod=-dum
2F\	-d(u)m	2A/	-dum	4d/	-d(u)m	2f\	-du(m)
.	.	.	.	4c/	.	.	.
=87-	=87-	=87-	=87-	=87-	=87-	=87-	=87-
2D/	ſcri-	2A/	ſcrip-	2d\	ſcri-	2f\	ſcrip-
*	*	*	*	*	*	*custos:e	*
!	!LO:MO:mod=-pt[u-	!	!	!	!	!	!
2E\	-pt:	2G/	-tu-	2B/	-ptu-	2e/	-tu-
*	*	*	*	*	*	*xywh-#82:1483,766,4094,793	*
!	!LO:MO:null:mod=-ras]	!	!	!	!	!LO:PB:g=original	!
2AA/	.	1A\	-ras	1c\	-ras	2e\	-ras
!	!LO:MO:mod=et	!	!	!	!	!	!LO:MO:mod=et
2AA/	e(t)	.	.	.	.	2A/	e(t)
=88-	=88-	=88-	=88-	=88-	=88-	=88-	=88-
2BBny/	a-	2r	.	1r	.	2d\	a-
2C/	-ſcen-	1A\	Tu	.	.	2e\	-ſcen-
2D/	-dit	.	.	2r	.	2d\	-dit
!	!LO:MO:null:mod=[as-	!	!	!	!LO:MO:mod=et	!	!
2D/	.	2A/	ad	2d\	e(t)	2f\	in
=89-	=89-	=89-	=89-	=89-	=89-	=89-	=89-
*	*	*custos:A	*	*	*	*	*
!	!LO:MO:null:mod=-cen-	!	!	!	!	!	!LO:MO:mod=cae-
2.F\	.	1A\	dex-	2c/	a-	2f\	c(ae)-
!	!	!	!	!	!LO:MO:mod=-scen-	!	!LO:MO:mod=-lum
.	.	.	.	2f\	-ſce(n)-	2c/	-lu(m)
*custos:A	*	*	*	*	*	*	*
4G\	.	.	.	.	.	.	.
*xywh-#635:5840,1545,4119,799	*	*xywh-#464:1395,802,4043,874	*	*	*	*	*
!LO:LB:g=original	!LO:MO:null:mod=-dit]	!LO:PB:g=original	!	!	!	!	!
2A\	.	2A/	-te-	2e\	-dit	1r	.
*	*	*	*	*custos:e	*	*	*
2D/	in	2A/	-ram	2f\	in	.	.
!	!	!	!	!LO:LB:g=original	!	!	!
=90-	=90-	=90-	=90-	=90-	=90-	=90-	=90-
*	*	*	*	*xywh-#269:1567,2339,4060,809	*	*	*
!	!LO:MO:mod=cae-	!	!	!	!LO:MO:mod=cae-	!	!
2.E\	c(ae)-	1G/	De-	1e\	c(ae)-	2r	.
!	!	!	!	!	!	!	!LO:MO:mod=se-
.	.	.	.	.	.	1g\	Se-
!	!LO:MO:null:mod=.	!	!	!	!	!	!
4F\	-lu(m)	.	.	.	.	.	.
!	!LO:MO:null:mod=-lum	!	!	!	!LO:MO:mod=-lum	!	!
1G\	.	1B\	-i	1d\	-lu(m)	.	.
.	.	.	.	.	.	2g\	-det
=91-	=91-	=91-	=91-	=91-	=91-	=91-	=91-
!	!	!	!	!	!	!	!LO:MO:null:mod=ad
1.C/	ſe-	0c\	ſe-	2r	.	2e\	.
!	!	!	!	!	!	!	!LO:MO:mod=dex-
.	.	.	.	1e\	ſe-	2.g\	ad
.	.	.	.	.	.	4f\	.
!	!	!	!	!	!	!	!LO:MO:null:mod=.
2C/	-det	.	.	2g\	-det	2e\	dex-
=92-	=92-	=92-	=92-	=92-	=92-	=92-	=92-
2D/	ad	1A\	-des	1f\	ad	2.d\	-te-
1D\	dex-	.	.	.	.	.	.
.	.	.	.	.	.	4e\	.
.	.	1A\	in	2d\	.	4f\	.
.	.	.	.	.	.	4g\	.
!	!	!	!	!	!	!	!LO:MO:null:mod=-ram
2AA/	-te-	.	.	1e\	dex-	2.a\	.
=93-	=93-	=93-	=93-	=93-	=93-	=93-	=93-
*	*	*lig	*	*	*	*	*
!	!LO:MO:mod=-ram	!	!	!	!	!	!
2C/	-ra(m)	1A\	glo-	.	.	.	.
.	.	.	.	.	.	4g\	.
!	!LO:MO:mod=Pa-	!	!	!	!	!	!
2D/	p(at)-	.	.	4d\	-te-	4f\	.
!	!	!	!	!	!	!	!LO:MO:null:mod=.
.	.	.	.	4c\	.	4e\	-ra(m)
!	!LO:MO:mod=-tris	!	!	!	!LO:MO:mod=-ram	!	!LO:MO:null:mod=.
2GG/	-ris	1G/	.	2B/	-ra(m)	2d\	p(at)-
!	!LO:MO:mod=et	!	!	!	!LO:MO:mod=Pa-	!	!LO:MO:mod=Pa-
2C/	e(t)	.	.	1e\	p(at)-	1c\	-ris
*	*	*Xlig	*	*	*	*	*
=94-	=94-	=94-	=94-	=94-	=94-	=94-	=94-
1F\	i-	2.A/	-ri-	.	.	.	.
*	*	*	*	*	*	*custos:e	*
!	!	!	!	!	!LO:MO:null:mod=.	!	!LO:MO:null:mod=-tris
.	.	.	.	2d\	-ris	2A/	.
.	.	4B\	.	.	.	.	.
*	*	*	*	*	*	*xywh-#82:1530,1594,4025,799	*
!	!	!	!	!	!LO:MO:null:mod=-tris	!LO:LB:g=original	!
2.E\	-te-	2c\	.	1e\	.	2r	.
!	!	!	!	!	!	!	!LO:MO:mod=et
.	.	1B\	.	.	.	2e\	Et
!	!LO:MO:mod=-rum	!	!	!	!	!	!
4D/	-ru(m)	.	.	.	.	.	.
=95-	=95-	=95-	=95-	=95-	=95-	=95-	=95-
2C/	ven-	.	.	0r	.	2e\	i-
2AA/	-tu-	1A\	-a	.	.	2e\	-te-
!	!LO:MO:mod=-rus	!	!	!	!	!	!LO:MO:mod=-rum
1E\	-r(us)	.	.	.	.	2e\	-ru(m)
!	!	!	!LO:MO:mod=Pa-	!	!	!	!
.	.	2G/	p(at)-	.	.	2e\	ven-
=96-	=96-	=96-	=96-	=96-	=96-	=96-	=96-
!	!	!	!LO:MO:mod=-tris	!	!	!	!
2D/	eſt	1A\	-ris	1r	.	2f\	-tu-
!	!	!	!	!	!	!	!LO:MO:mod=-rus
2D/	cum	.	.	.	.	2f\	-r(us)
*xywh-#635:5857,2382,4148,867	*	*	*	*	*	*	*
1AA/	glo-	0A\	Iu-	2r	.	1e\	eſt
.	.	.	.	2E/	iu-	.	.
!LO:LB:g=original	!	!	!	!	!	!	!
=97-	=97-	=97-	=97-	=97-	=97-	=97-	=97-
!	!	!	!	!	!	!	!LO:MO:mod=cum
2AA/	-ri-	.	.	2E/	-di-	2e\	cu(m)
2AA/	-a	.	.	2E/	-ca-	2.a\	glo-
2.D/	iu-	1A\	-dex	2F/	-re	.	.
.	.	.	.	.	.	4g\	.
.	.	.	.	1A/	vi-	4f\	-ri-
4C/	-di-	.	.	.	.	4e\	-a
=98-	=98-	=98-	=98-	=98-	=98-	=98-	=98-
*	*	*lig	*	*	*	*	*
1BB/	-ca-	1B\	cre-	.	.	2d\	.
!	!	!	!	!	!LO:MO:mod=-vos	!	!
.	.	.	.	2G/	-uos	2d\	iu-
*	*	*custos:A	*	*	*	*	*
2AA/	-re	1c\	.	2A/	.	2c/	-di-
!	!	!	!	!	!LO:MO:mod=et	!	!
2AA/	vi-	.	.	1c\	e(t)	2e\	-ca-
*	*	*Xlig	*	*	*	*	*
!	!	!LO:LB:g=original	!	!	!	!	!
=99-	=99-	=99-	=99-	=99-	=99-	=99-	=99-
*	*	*xywh-#464:1421,1626,4082,783	*	*	*	*	*
!	!LO:MO:mod=-vos	!	!	!	!	!	!
2C/	-uos	1A\	-de-	.	.	2e\	-re
!	!LO:MO:mod=et	!	!	!	!	!	!
2D/	e(t)	.	.	4F/	mor-	2d\	vi-
*	*	*	*	*custos:A	*	*	*
.	.	.	.	4G/	.	.	.
*	*	*	*	*xywh-#269:1547,3123,4088,1010	*	*	*
!	!	!	!	!LO:LB:g=original	!	!	!LO:MO:mod=-vos
1AA/	mor-	1A\	-ra	4A/	.	2c/	-uos
.	.	.	.	4B/	.	.	.
.	.	.	.	1c\	.	2e\	et
=100-	=100-	=100-	=100-	=100-	=100-	=100-	=100-
*	*	*lig	*	*	*	*	*
1FF/	-tu-	1A\	eſ-	.	.	2.f\	mor-
.	.	.	.	4B/	-tu-	.	.
*	*	*	*	*	*	*custos:d	*
.	.	.	.	4A/	-os	4f\	-tu-
*	*	*	*	*	*	*xywh-#82:1532,2380,4060,828	*
!	!	!	!	!	!	!LO:LB:g=original	!
2GG/	-os	1G/	.	2B/	.	2d\	-os
!	!	!	!	!	!	!	!LO:MO:mod=cu-
2GG/	cu-	.	.	2B/	cu-	2d\	Cu-
*	*	*Xlig	*	*	*	*	*
=101-	=101-	=101-	=101-	=101-	=101-	=101-	=101-
2D/	-ius	1A\	-se	2A/	-ius	2f\	-ius
2C/	re-	.	.	2c/	re-	2e\	re-
2BB/	-gni	1B\	ven-	2d\	-gni	2g\	-gni
!	!	!	!	!	!LO:MO:mod=non	!	!LO:MO:mod=non
2GG/	non	.	.	2d\	no(n)	2g\	no(n)
=102-	=102-	=102-	=102-	=102-	=102-	=102-	=102-
2C/	e-	0G/	-tu-	2.c/	e-	2e\	e-
1C/	-rit	.	.	.	.	1e\	-rit
!	!	!	!	!	!LO:MO:null:mod=.	!	!
.	.	.	.	4d\	-rit	.	.
!	!	!	!	!	!LO:MO:null:mod=-rit	!	!
.	.	.	.	2e\	.	.	.
*custos:AA	*	*	*	*	*	*	*
2BB/	fi-	.	.	2B/	fi-	2d\	fi-
!LO:LB:g=original	!	!	!	!	!	!	!
=103-	=103-	=103-	=103-	=103-	=103-	=103-	=103-
*xywh-#635:5840,3204,4136,1059	*	*	*	*	*	*	*
2AA/	-nis	2A/	-rus	2c/	-nis	2c/	-nis
2r	.	2r	.	2r	.	2r	.
*	*	*lig	*	*	*	*	*
!	!	!	!LO:MO:mod=San-	!	!	!	!
1E\	Et	1G/	S(an)c-	1B/	Et	1e\	Et
=104-	=104-	=104-	=104-	=104-	=104-	=104-	=104-
2AA/	in	1A\	.	2c/	in	2e\	in
!	!LO:MO:mod=spi-	!	!	!	!LO:MO:mod=spi-	!	!
1D\	ſp(i-	.	.	2A/	ſp(i-	2d\	ſpi-
*	*	*Xlig	*	*	*	*	*
!	!	!	!LO:MO:mod=-ctum	!	!	!	!
.	.	1A\	-t(u)m	2A/	-ri-	2f\	-ri-
!	!	!	!	!	!LO:MO:mod=-tum	!	!
2C/	-ri-	.	.	2c/	-tu)m	2e\	-tum
=105-	=105-	=105-	=105-	=105-	=105-	=105-	=105-
!	!LO:MO:mod=-tum	!	!	!	!	!	!
2D/	-t)um	1B\	quo-	2r	.	2r	.
*	*	*	*	*custos:c	*	*	*
!	!LO:MO:mod=san-	!	!	!	!	!	!LO:MO:mod=san-
2E\	ſ(an)c-	.	.	2e\	ſan-	2e\	ſ(an)-
*	*	*	*	*xywh-#269:5951,698,4296,844	*	*	*
!	!LO:MO:mod=-ctum	!	!LO:MO:mod=-que	!LO:PB:g=original	!LO:MO:mod=-ctum	!	!LO:MO:mod=-ctum
2AA/	-t(u)m	1A\	-q(ue)	2c/	-ctu(m)	2e\	-ct(u)m
!	!LO:MO:mod=Do-	!	!	!	!LO:MO:mod=Do-	!	!LO:MO:mod=Do-
1D\	D(o-	.	.	2.f\	do-	2d\	do-
=106-	=106-	=106-	=106-	=106-	=106-	=106-	=106-
.	.	1A\	Pa-	.	.	2d\	-mi-
.	.	.	.	4e\	.	.	.
*	*	*	*	*	*	*custos:e	*
!	!LO:MO:mod=-mi-	!	!	!	!	!	!
2D/	-mi)-	.	.	1d\	.	2A/	-num
!	!	!	!	!	!	!LO:LB:g=original	!
*	*	*lig	*	*	*	*xywh-#82:1537,3179,4054,805	*
!	!LO:MO:mod=-num	!	!	!	!	!	!
1AA/	-n(u)m	1A\	-ra-	.	.	2r	.
!	!	!	!	!	!	!	!LO:MO:mod=et
.	.	.	.	2c/	-mi-	2e\	e(t)
=107-	=107-	=107-	=107-	=107-	=107-	=107-	=107-
!	!	!	!	!	!LO:MO:mod=-num	!	!
2r	.	1G/	.	2d\	-nu(m)	1g\	vi-
!	!	!	!	!	!LO:MO:mod=et	!	!
2E\	et	.	.	2e\	e(t)	.	.
*	*	*Xlig	*	*	*	*	*
!	!LO:MO:mod=vi-	!	!LO:MO:mod=-cli-	!	!	!	!
2F\	Vi-	1A\	-cle-	2c/	vi-	1f\	-vi-
!	!LO:MO:mod=-vi-	!	!	!	!LO:MO:mod=-vi-	!	!
2D/	-ui-	.	.	4d/	-ui-	.	.
.	.	.	.	4c/	.	.	.
=108-	=108-	=108-	=108-	=108-	=108-	=108-	=108-
!	!	!	!LO:MO:mod=-tum	!	!	!	!
2.G\	-fi-	1B\	-tu(m)	4B/	.	1d\	-fi-
.	.	.	.	4A/	.	.	.
.	.	.	.	1d\	-fi-	.	.
4F\	-can-	.	.	.	.	.	.
1E\	-tem	2G/	ſpi-	.	.	1e\	-can-
*	*	*custos:A	*	*	*	*	*
!	!	!	!	!	!LO:MO:mod=-can	!	!
.	.	2G/	-ri-	2c/	-ca(n)-	.	.
!	!	!LO:LB:g=original	!	!	!	!	!
=109-	=109-	=109-	=109-	=109-	=109-	=109-	=109-
*	*	*xywh-#464:1441,2390,4089,776	*	*	*	*	*
!	!	!	!	!	!LO:MO:mod=-tem	!	!LO:MO:mod=-tem
2D/	.	1A\	-tum	1d\	-te(m)	2f\	-te(m)
*custos:D	*	*	*	*	*	*	*
2D/	qui	.	.	.	.	2f\	qui
!LO:PB:g=original	!	!	!	!	!	!	!
*xywh-#636:1404,738,4187,861	*	*	*	*	*	*	*
2D/	ex	1r	.	1r	.	2.d\	ex
!	!LO:MO:mod=Pa-	!	!	!	!	!	!
2G\	p(at)-	.	.	.	.	.	.
!	!	!	!	!	!	!	!LO:MO:mod=Pa-
.	.	.	.	.	.	4e\	p(at)-
=110-	=110-	=110-	=110-	=110-	=110-	=110-	=110-
!	!LO:MO:mod=-tre	!	!	!	!	!	!LO:MO:mod=-tre
2F\	-re	2r	.	2r	.	1f\	-re
1F\	fi-	2A/	Qui	2c/	Qui	.	.
.	.	2A/	ex	2c/	ex	1r	.
!	!	!	!LO:MO:mod=Pa-	!	!LO:MO:mod=Pa-	!	!
4E/	.	2B\	p(at)-	2d\	p(at)-	.	.
4D/	.	.	.	.	.	.	.
=111-	=111-	=111-	=111-	=111-	=111-	=111-	=111-
!	!	!	!LO:MO:mod=-tre	!	!LO:MO:mod=-tre	!	!
2.C/	-li-	2c\	-re	2e\	-re	2r	.
.	.	2c\	fi-	2e\	fi-	2g\	fi-
4D/	.	.	.	.	.	.	.
2E\	-o-	2B\	-li-	2e\	-li-	2g\	-li-
!	!LO:MO:mod=-que	!	!	!	!	!	!
2F\	-q(ue)	2A/	-o-	4d\	-o-	4f\	-o-
!	!	!	!	!	!LO:MO:null:mod=.	!	!
.	.	.	.	4c\	-q(ue)	4e\	.
=112-	=112-	=112-	=112-	=112-	=112-	=112-	=112-
!	!	!	!LO:MO:mod=-que	!	!LO:MO:null:mod=-que	!	!LO:MO:mod=-que
2G\	pro-	2B\	-q(ue)	2B/	.	2d\	-q(ue)
*	*	*	*	*custos:d	*	*	*
2C/	-ce-	2c\	pro-	2e\	pro-	1g\	pro-
*	*	*	*	*xywh-#269:5965,1563,4123,774	*	*	*
!	!	!	!	!LO:LB:g=original	!	!	!
1D\	.	1A\	-ce-	1d\	-ce-	.	.
.	.	.	.	.	.	2f\	-ce-
=113-	=113-	=113-	=113-	=113-	=113-	=113-	=113-
0GG/	-dit	1G/	-dit	1d\	-dit	2g\	-dit
!	!	!	!	!	!	!	!LO:MO:mod=qui
.	.	.	.	.	.	1d\	q(ui)
!	!	!	!	!	!LO:MO:mod=qui	!	!
.	.	00r	.	1B/	q(ui)	.	.
*	*	*	*	*	*	*custos:e	*
.	.	.	.	.	.	2d\	cum
!	!	!	!	!	!	!LO:PB:g=original	!
=114-	=114-	=114-	=114-	=114-	=114-	=114-	=114-
*	*	*	*	*	*	*xywh-#82:5974,764,4146,932	*
!	!	!	!	!	!LO:MO:mod=cum	!	!LO:MO:mod=Pa-
00r	.	.	.	2B/	cu(m)	1e\	p(at)-
!	!	!	!	!	!LO:MO:mod=Pa-	!	!
.	.	.	.	1c\	p(at)-	.	.
!	!	!	!	!	!	!	!LO:MO:mod=-tre
.	.	.	.	.	.	2f\	-re
!	!	!	!	!	!LO:MO:mod=-tre	!	!LO:MO:mod=et
.	.	.	.	2d\	-re	2g\	e(t)
=115-	=115-	=115-	=115-	=115-	=115-	=115-	=115-
!	!	!	!	!	!LO:MO:mod=et	!	!LO:MO:mod=Fi-
.	.	.	.	2e\	e(t)	1g\	fi-
!	!	!	!	!	!LO:MO:null:mod=Fi-	!	!
.	.	.	.	2.d\	.	.	.
.	.	0r	.	.	.	4f\	-li-
!	!	!	!	!	!LO:MO:null:mod=.	!	!
.	.	.	.	4c/	fi-	4e\	.
.	.	.	.	1c\	.	4d\	.
.	.	.	.	.	.	4c\	.
=116-	=116-	=116-	=116-	=116-	=116-	=116-	=116-
1r	.	.	.	.	.	1d\	-o
.	.	.	.	2B/	-li-	.	.
1.C/	ſi-	2r	.	2c/	-o	1e\	ſi-
!	!	!	!LO:MO:mod=si-	!	!	!	!
.	.	1c\	Si-	1G/	ſi-	.	.
=117-	=117-	=117-	=117-	=117-	=117-	=117-	=117-
.	.	.	.	.	.	2e\	-mul
2C/	-mul	2c\	-mul	2G/	-mul	1e\	a-
2E\	a-	2B\	a-	2G/	a-	.	.
2F\	-do-	2A/	-do-	1A/	-do-	2d\	-do-
=118-	=118-	=118-	=118-	=118-	=118-	=118-	=118-
1E\	-ra-	1B\	-ra-	.	.	1e\	-ra-
.	.	.	.	2G/	-ra-	.	.
1AA/	-tur	2A/	-tur	2A/	-tur	1e\	-tur
*	*	*custos:G	*	*	*	*	*
!	!	!	!LO:MO:mod=et	!	!LO:MO:mod=et	!	!
.	.	2A/	e(t)	1c\	e(t)	.	.
!	!	!LO:LB:g=original	!	!	!	!	!
=119-	=119-	=119-	=119-	=119-	=119-	=119-	=119-
*	*	*xywh-#464:1441,3194,4164,913	*	*	*	*	*
2r	.	2G/	con-	.	.	1r	.
!	!LO:MO:mod=et	!	!	!	!	!	!
1D\	e(t)	2A/	-glo-	2d\	.	.	.
!	!	!	!	!	!LO:MO:mod=con-	!	!
.	.	2B\	-ri-	1e\	co-	2r	.
*custos:D	*	*	*	*	*	*	*
!	!	!	!	!	!	!	!LO:MO:mod=et
2C/	con-	2c\	-fi-	.	.	1g\	e(t)
!LO:LB:g=original	!	!	!	!	!	!	!
=120-	=120-	=120-	=120-	=120-	=120-	=120-	=120-
*xywh-#636:1404,1594,4136,889	*	*	*	*	*	*	*
1D\	-glo-	1A\	-ca-	2.d\	-glo-	.	.
!	!	!	!	!	!	!	!LO:MO:mod=con-
.	.	.	.	.	.	2f\	co(n)-
*	*	*	*	*custos:B	*	*	*
.	.	.	.	4c/	-ri-	.	.
*	*	*	*	*xywh-#269:5986,2365,4150,816	*	*	*
!	!	!	!	!LO:LB:g=original	!	!	!
2E\	-ri-	1G/	-tur	2B/	.	2g\	-glo-
2C/	-fi-	.	.	2c/	-fi-	2e\	-ri-
=121-	=121-	=121-	=121-	=121-	=121-	=121-	=121-
1D\	-ca-	2r	.	1A/	-ca-	2.d\	-fi-
.	.	2A/	qui	.	.	.	.
.	.	.	.	.	.	4d\	-ca-
!	!	!	!	!	!	!	!LO:MO:mod=-tur
1GG/	-tur	1B\	lo-	1G/	-tur	2d\	-t(ur)
*	*	*	*	*	*	*custos:e	*
.	.	.	.	.	.	2d\	qui
!	!	!	!	!	!	!LO:LB:g=original	!
=122-	=122-	=122-	=122-	=122-	=122-	=122-	=122-
*	*	*	*	*	*	*xywh-#82:5997,1604,4077,781	*
1r	.	2c\	-cu-	1r	.	1e\	lo-
.	.	1c\	-tus	.	.	.	.
!	!	!	!	!	!	!	!LO:MO:mod=-cu-
2r	.	.	.	2r	.	2e\	-quu-
!	!LO:MO:mod=qui	!	!	!	!	!	!
2D/	Qui	2d\	eſt	2A/	qui	2f\	-tus
=123-	=123-	=123-	=123-	=123-	=123-	=123-	=123-
1E\	lo-	1B\	.	2A/	lo-	2.e\	eſt
.	.	.	.	2G/	-cu-	.	.
.	.	.	.	.	.	4d\	.
2F\	-cu-	2.A/	per	4A/	-tus	4c/	.
.	.	.	.	4B/	.	4B/	.
2F\	-tus	.	.	4c\	.	1A/	per
.	.	4B\	.	4d\	.	.	.
=124-	=124-	=124-	=124-	=124-	=124-	=124-	=124-
2.E\	eſt	2c\	pro-	2e\	eſt	.	.
!	!	!	!	!	!LO:MO:mod=per	!	!
.	.	1B\	.	2e\	p(er)	2G/	pro-
!	!LO:MO:mod=per	!	!	!	!	!	!
4D/	p(er)	.	.	.	.	.	.
!	!LO:MO:mod=pro-	!	!	!	!LO:MO:mod=pro-	!	!LO:MO:mod=-phe-
2C/	p(ro)-	.	.	2e\	p(ro-	1c\	-ph(e-
!	!	!	!	!	!LO:MO:mod=-phe-	!	!
2AA/	-phe-	1A\	-phe-	2e\	-ph(et)-	.	.
=125-	=125-	=125-	=125-	=125-	=125-	=125-	=125-
!	!	!	!	!	!LO:MO:mod=-tas	!	!LO:MO:mod=-tas
1E\	-tas	.	.	1e\	-as	1B/	-ta)s
.	.	2G/	.	.	.	.	.
!	!	!	!LO:MO:mod=-tas	!	!LO:MO:mod=et	!	!LO:MO:mod=et
1AA/	.	1A\	-tas.	2c/	e(t)	2e\	Et
!	!	!	!	!	!LO:MO:mod=u-	!	!LO:MO:mod=u-
.	.	.	.	2c/	v-	2e\	v-
=126-	=126-	=126-	=126-	=126-	=126-	=126-	=126-
!	!	!	!	!	!LO:MO:mod=-nam	!	!LO:MO:mod=-nam
00r	.	00r	.	2c/	-na(m)	1e\	-na(m)
!	!	!	!	!	!LO:MO:mod=san-	!	!
.	.	.	.	2B/	ſ(an)-	.	.
!	!	!	!	!	!	!	!LO:MO:mod=san-
.	.	.	.	2A/	-ctam	2f\	ſ(an)-
.	.	.	.	1B/	Ca-	4e\	-ctam
.	.	.	.	.	.	4d\	.
=127-	=127-	=127-	=127-	=127-	=127-	=127-	=127-
.	.	.	.	.	.	2c/	Ca-
!	!	!	!	!	!	!	!LO:MO:mod=-tho-
.	.	.	.	1A/	-tho-	2d\	-tho:
!	!	!	!	!	!	!	!LO:MO:null:mod=-[li-
.	.	.	.	.	.	1B/	.
*	*	*	*	*custos:A	*	*	*
.	.	.	.	2G/	-li-	.	.
!	!	!	!	!LO:LB:g=original	!	!	!
=128-	=128-	=128-	=128-	=128-	=128-	=128-	=128-
*	*	*	*	*xywh-#269:5986,3137,4185,788	*	*	*
!	!	!	!	!	!	!	!LO:MO:null:mod=-cam]
2r	.	2r	.	1A/	-cam	2A/	.
*	*	*custos:c	*	*	*	*	*
!	!LO:MO:mod=et	!	!LO:MO:mod=et	!	!	!	!LO:MO:mod=et
2AA/	e(t)	2c\	e(t)	.	.	2e\	e(t)
*	*	*xywh-#464:5870,706,4116,831	*	*	*	*	*
!	!LO:MO:mod=A-	!LO:PB:g=original	!	!	!	!	!
2AA/	a-	2c\	A-	1r	.	2e\	A-
*custos:E	*	*	*	*	*	*custos:e	*
2AA/	-po-	2A/	-po-	.	.	2e\	-po-
!LO:LB:g=original	!	!	!	!	!	!LO:LB:g=original	!
=129-	=129-	=129-	=129-	=129-	=129-	=129-	=129-
*xywh-#636:1438,2442,4176,725	*	*	*	*	*	*xywh-#82:5997,2391,4060,834	*
!	!	!	!	!	!LO:MO:mod=et	!	!
2E\	-ſto-	2B\	-ſto-	1G/	e(t)	2e\	-ſto-
2C/	-li-	2c\	-li-	.	.	2e\	-li-
!	!	!	!LO:MO:mod=-cam	!	!	!	!LO:MO:mod=-cam
2.D/	-cam	2A/	-ca(m)	2d\	A-	2d\	-ca(m)
.	.	1A\	Ec-	2d\	-po-	1f\	Ec-
4E\	.	.	.	.	.	.	.
=130-	=130-	=130-	=130-	=130-	=130-	=130-	=130-
2F\	Ec-	.	.	2c/	-ſto-	.	.
!	!	!	!LO:MO:mod=-cle-	!	!	!	!LO:MO:mod=-cle-
2C/	-cle-	2G/	-cl(e-	2c/	-li-	1e\	-cl(e-
!	!	!	!LO:MO:mod=-si-	!	!LO:MO:mod=-cam	!	!
1D\	-ſi-	1F/	-si)-	2.A/	-ca(m)	.	.
!	!	!	!	!	!	!	!LO:MO:mod=-si-
.	.	.	.	.	.	2d\	-si)-
.	.	.	.	4B/	ec-	.	.
=131-	=131-	=131-	=131-	=131-	=131-	=131-	=131-
!	!	!	!	!	!LO:MO:mod=-cle-	!	!
1AA/	-am	0E/	-am	2c/	-cl(e-	0e\	-am
!	!	!	!	!	!LO:MO:mod=-si-	!	!
.	.	.	.	2c/	-si)-	.	.
1E\	.	.	.	1B/	-am	.	.
=132-	=132-	=132-	=132-	=132-	=132-	=132-	=132-
1E\	Con-	1G/	Con-	1B/	Con-	1e\	Con-
2.D/	-fi-	2.A/	-fi-	2.d\	-fi-	2.f\	-fi-
4D/	-te-	4A/	-te-	4d\	-te-	4f\	-te-
=133-	=133-	=133-	=133-	=133-	=133-	=133-	=133-
2E\	 or	2G/	-or	2B/	 or	2e\	 or
!	!LO:MO:mod=u-	!	!LO:MO:mod=u-	!	!LO:MO:mod=u-	!	!LO:MO:mod=u-
2C/	v-	2E/	v-	2c/	v-	2e\	v-
!	!LO:MO:mod=-num	!	!LO:MO:mod=-num	!	!LO:MO:mod=-num	!	!LO:MO:mod=-num
2D/	-num	2F/	-nu(m)	2A/	-nu(m)	2d\	-nu(m)
2BB/	bap-	2G/	bap-	2d\	bap-	1g\	bap-
=134-	=134-	=134-	=134-	=134-	=134-	=134-	=134-
2C/	-tiſ-	1A\	-tiſ-	2c/	-tiſ-	.	.
2D/	-ma	.	.	2A/	.	2f\	-tiſ-
*	*	*	*	*custos:c	*	*	*
!	!	!	!	!	!LO:MO:mod=-ma	!	!
2E\	.	2G/	-ma	0e\	-ma.	2g\	-ma
1C/	in	1c\	in	.	.	1g\	in
=135-	=135-	=135-	=135-	=135-	=135-	=135-	=135-
.	.	.	.	.	.	.	.
*custos:F	*	*	*	*	*	*	*
2C/	re-	2c\	re-	.	.	2g\	re-
*xywh-#636:1478,3196,4125,867	*	*	*	*	*	*	*
!LO:LB:g=original	!	!	!	!	!	!	!
2.F\	-miſ-	2.c\	-miſ-	1r	.	2.f\	-miſ-
*	*	*custos:c	*	*	*	*custos:f	*
4F\	-si-	4c\	-si-	.	.	4f\	-si-
!	!	!LO:LB:g=original	!	!LO:PB:g=original	!	!LO:LB:g=original	!
=136-	=136-	=136-	=136-	=136-	=136-	=136-	=136-
*	*	*xywh-#464:5883,1538,4130,776	*	*xywh-#270:1502,705,4064,795	*	*xywh-#82:5995,3199,4089,1019	*
2F\	-o-	2c\	-o-	0r	.	2f\	-o-
!	!	!	!	!	!	!	!LO:MO:mod=-nem
2C/	-nem	2c\	-nem	.	.	2e\	-ne(m)
!	!	!	!LO:MO:mod=pec-	!	!	!	!
2D/	pec-	4B\	p(ec)-	.	.	4d\	pec-
.	.	4A\	.	.	.	4c\	.
!	!	!	!LO:MO:mod=-ca-	!	!	!	!
2F\	-ca-	1A\	-c(a)-	.	.	4B/	-ca-
.	.	.	.	.	.	4A/	.
=137-	=137-	=137-	=137-	=137-	=137-	=137-	=137-
1E\	-to-	.	.	2r	.	1B/	-to-
!	!	!	!	!	!LO:MO:mod=et	!	!
.	.	2G/	-to-	1e\	e(t)	.	.
!	!LO:MO:mod=-rum	!	!LO:MO:mod=-rum	!	!	!	!LO:MO:mod=-rum
2AA/	-ru(m)	1A\	-ru(m)	.	.	2A/	-ru(m)
!	!LO:MO:mod=et	!	!	!	!	!	!LO:MO:mod=et
1AA/	e(t)	.	.	2e\	ex-	2c/	Et
=138-	=138-	=138-	=138-	=138-	=138-	=138-	=138-
!	!	!	!LO:MO:mod=et	!	!	!	!
.	.	1E/	e(t)	1e\	-pec-	2c/	ex-
2AA/	ex-	.	.	.	.	2A/	-pec-
*	*	*lig	*	*	*	*	*
1E\	-pec-	1G/	ex-	1e\	-to	2B/	-to
.	.	.	.	.	.	2c/	re-
=139-	=139-	=139-	=139-	=139-	=139-	=139-	=139-
2D/	-to	1A\	.	1r	.	2d\	-ſur-
!	!LO:MO:null:mod=[ex-	!	!	!	!	!	!
2C/	.	.	.	.	.	2e\	-re-
*	*	*Xlig	*	*	*	*	*
!	!LO:MO:null:mod=-pe-	!	!	!	!	!	!
2.F\	.	1A\	-pec-	2r	.	1.f\	-cti-
.	.	.	.	2c/	re-	.	.
4E\	.	.	.	.	.	.	.
=140-	=140-	=140-	=140-	=140-	=140-	=140-	=140-
2D/	.	1A\	-to	2d\	-ſur-	.	.
!	!LO:MO:null:mod=-cto]	!	!	!	!	!	!
2AA/	.	.	.	2e\	-rec-	2e\	-o-
1r	.	2r	.	2f\	-ti-	2d\	-nem
.	.	2G/	re-	2g\	-o-	4r	.
*	*	*	*	*	*	*	*ij
.	.	.	.	.	.	2c/	re-
=141-	=141-	=141-	=141-	=141-	=141-	=141-	=141-
2r	.	2A/	-ſur-	2f\	-nem	.	.
.	.	.	.	.	.	2d\	-ſur-
2GG/	re-	2B\	-rec-	2r	.	.	.
!	!	!	!	!	!	!	!LO:MO:mod=-rec-
.	.	.	.	.	.	2e\	-re-
2AA/	-ſur-	2c\	-ti-	2c/	mor-	.	.
!	!	!	!	!	!	!	!LO:MO:mod=-ti-
.	.	.	.	.	.	4f\	-cti-
*custos:C	*	*	*	*	*	*custos:e	*
!	!LO:MO:mod=-rec-	!	!	!	!	!	!
2BB/	-re-	2d\	-o-	2B/	-tu-	2d\	-o-
!LO:PB:g=original	!	!	!	!	!	!LO:PB:g=original	!
=142-	=142-	=142-	=142-	=142-	=142-	=142-	=142-
*xywh-#636:5758,735,4363,833	*	*	*	*	*	*xywh-#83:1512,789,4015,777	*
!	!LO:MO:mod=-ti-	!	!	!	!	!	!
2C/	-cti-	2c\	-nem	1A/	-o-	2e\	-nem
2D/	-o-	2A/	mor-	.	.	4d\	mor-
.	.	.	.	.	.	4c/	.
1GG/	-nem	2.B\	.	2G/	-rum	4B/	.
.	.	.	.	.	.	4A/	.
!	!	!	!	!	!LO:MO:null:mod=[mor-	!	!
.	.	.	.	2d\	.	1G/	-tu-
.	.	4c\	-tu-	.	.	.	.
=143-	=143-	=143-	=143-	=143-	=143-	=143-	=143-
*	*	*custos:G	*	*	*	*	*
!	!	!	!	!	!LO:MO:null:mod=-tu-	!	!
2.D/	mor-	1A\	-o-	2.d\	.	.	.
.	.	.	.	.	.	2F/	-o-
!	!	!	!	!	!LO:MO:null:mod=-o-	!	!
4C/	.	.	.	4d\	.	.	.
*	*	*xywh-#464:5876,2308,4198,811	*	*	*	*	*
!	!	!LO:LB:g=original	!	!	!LO:MO:null:mod=-rum]	!	!
2BB/	-tu-	1G/	-rum	2d\	.	1G/	-rum
!	!LO:MO:null:mod=.	!	!	!	!LO:MO:mod=et	!	!
2C/	-o-	.	.	2G/	e(t)	.	.
=144-	=144-	=144-	=144-	=144-	=144-	=144-	=144-
*	*	*	*	*custos:B	*	*	*
!	!LO:MO:mod=-o-	!	!LO:MO:mod=et	!	!LO:MO:mod=vi-	!	!
1AA/	-ru(m)	1C/	e(t)	1A/	Vi-	1r	.
*	*	*	*	*xywh-#270:1479,1512,4133,824	*	*	*
!	!LO:MO:null:mod=-rum	!	!	!LO:PB:g=original	!	!	!
1GG/	.	1D/	vi-	1B/	-tam	2r	.
!	!	!	!	!	!	!	!LO:MO:mod=et
.	.	.	.	.	.	2G/	Et
=145-	=145-	=145-	=145-	=145-	=145-	=145-	=145-
!	!LO:MO:mod=et	!	!LO:MO:mod=-tam	!	!LO:MO:null:mod=ven-	!	!
1FF/	e(t)	2F/	-ta(m)	2.c/	.	1A/	vi-
.	.	1F/	ven-	.	.	.	.
!	!	!	!	!	!LO:MO:null:mod=.	!	!
.	.	.	.	4B/	Ven-	.	.
!	!	!	!	!	!	!	!LO:MO:mod=-tam
2FF/	vi-	.	.	4c/	.	2c/	-ta(m)
.	.	.	.	4d\	.	.	.
!	!LO:MO:null:mod=.	!	!	!	!	!	!LO:MO:mod=ven-
2C/	-tam	2G/	-tu-	1e\	-tu-	1c\	Ven-
=146-	=146-	=146-	=146-	=146-	=146-	=146-	=146-
!	!LO:MO:null:mod=-tam	!	!	!	!	!	!
2AA/	.	2A/	-ri	.	.	.	.
!	!	!	!LO:MO:mod=sae-	!	!LO:MO:null:mod=.	!	!
2D/	ven-	2F/	ſe-	2A/	-ri	2.f\	-tu-
!	!	!	!	!	!LO:MO:null:mod=-ri	!	!
2C/	-tu-	2G/	-cu-	1c\	.	.	.
.	.	.	.	.	.	4e\	-ri
!	!	!	!	!	!	!	!LO:MO:mod=sae-
2AA/	-ri	2A/	-li	.	.	1e\	ſ(ae)-
=147-	=147-	=147-	=147-	=147-	=147-	=147-	=147-
!	!LO:MO:mod=sae-	!	!	!	!LO:MO:mod=sae-	!	!
1D\	ſe-	1F/	A-	2.A/	ſe-	.	.
!	!	!	!	!	!	!	!LO:MO:mod=-cu-
.	.	.	.	.	.	2d\	-c(u)-
.	.	.	.	4B/	.	.	.
!	!	!LO:SIC:s=[1E	!LO:MO:mod=-men.	!	!	!	!
2.C/	-cu-	[1E/;l	-men	2c/	-cu-	1e\	-li
!	!	!	!	!	!LO:MO:null:mod=.	!	!
.	.	.	.	2G/	-li	.	.
!	!LO:MO:mod=.	!	!	!	!	!	!
4BB/	-li	.	.	.	.	.	.
=148-	=148-	=148-	=148-	=148-	=148-	=148-	=148-
!	!LO:MO:null:mod=-li	!	!	!	!LO:MO:null:mod=-li	!	!
2AA/	.	0E_	.	2A/	.	0e\	A-
!	!LO:MO:null:mod=.	!	!	!	!LO:MO:null:mod=.	!	!
2GG/	A-	.	.	2B/	A-	.	.
!	!LO:MO:null:mod=A-	!	!	!	!LO:MO:mod=A-	!	!
1AA/	-men	.	.	1c\	-men	.	.
=149-	=149-	=149-	=149-	=149-	=149-	=149-	=149-
!	!LO:MO:null:mod=-men.	!LO:SIC:s=0E];	!	!	!LO:MO:null:mod=-men.	!	!
0E\;	.	0E]	.	0B/;	.	0e\;	-men.
==	==	==	==	==	==	==	==
*-	*-	*-	*-	*-	*-	*-	*-
!!!system-decoration: [(*)]
!!LO:MO:ori
!!!RDF**kern: l = terminal long
!!LO:MO:end
!!!filter-modern: sic -sq | shed -e "s/TX(.*):t=P:/tx$1:t=P:/LG" | shed -e "s/^(\d+[\/\\]right)/$1yy/I;s/^(\d+[\/\\]left)/$1yy/I" | shed -e "s/-//B" | shed -k -e "s/[<>]//g" | shed -k -e "s/LO:N:vis/LO:n:vis:/L" | shed -e "s/^custos:/Xcustos:/I" | shed -k -e "s/LO:N:acc/LO:n:acc:/L" | autostem -r | tie -s  | humtr -p | modori -m
!!!ENC: Mateusz Solarz
!!!END: 2022-02-16
!!!EED: Leszek Kubiak
!!!EEV: 2022-02-23
!!!ENC-modern: Andrzej Borzym
!!!END-modern: 2022-07-17
!!!ENC-iiif: Elżbieta Cabała
!!!END-iiif: 2022-09-02
